icons/mobile/24/svg/tab-ungroup-24.svg

<svg width="24" height="24" viewBox="0 0 24 24" fill="none" xmlns="http://www.w3.org/2000/svg">
<path d="M15.25 9.9989C15.733 9.9989 16.1249 10.391 16.125 10.8739C16.125 11.3569 15.733 11.7489 15.25 11.7489H11C10.517 11.7489 10.125 11.3569 10.125 10.8739C10.1251 10.391 10.517 9.9989 11 9.9989H15.25Z" fill="black"/>
<path fill-rule="evenodd" clip-rule="evenodd" d="M8.74023 3.36902C11.6211 2.87807 14.5988 2.87723 17.4736 3.36316C18.9366 3.61016 19.999 4.85703 19.999 6.32703V15.4178C19.999 16.8323 19.0279 18.0345 17.6699 18.3427C17.4063 19.505 16.476 20.4221 15.2598 20.6298C13.8158 20.8757 12.3409 20.9999 10.875 20.9999C9.4231 20.9999 7.96127 20.8776 6.52637 20.6356C5.06237 20.3886 4 19.1418 4 17.6708V8.57996C4 7.16663 4.96959 5.96264 6.32812 5.65418C6.59276 4.49208 7.52555 3.57624 8.74023 3.36902ZM13.125 4.4989C11.7451 4.4989 10.3541 4.61656 8.99219 4.84754C8.27219 4.97054 7.75 5.59398 7.75 6.32898V15.4198C7.75 16.1558 8.28639 16.7802 9.02539 16.9052C11.7342 17.3631 14.543 17.3612 17.2568 16.9003C17.9768 16.7773 18.499 16.1538 18.499 15.4188V6.32703C18.499 5.59103 17.9626 4.96668 17.2236 4.84168C15.8738 4.61372 14.4949 4.49793 13.124 4.49793L13.125 4.4989Z" fill="black"/>
</svg>

<!-- This Source Code Form is subject to the terms of the Mozilla Public
   - License, v. 2.0. If a copy of the MPL was not distributed with this
   - file, You can obtain one at http://mozilla.org/MPL/2.0/. -->
<svg xmlns="http://www.w3.org/2000/svg" width="24" height="24" fill="none" viewBox="0 0 24 24">
    <path fill="#000" d="M15.25 9.999a.875.875 0 0 1 0 1.75H11a.875.875 0 0 1 0-1.75z" />
    <path fill="#000" fill-rule="evenodd" d="M8.74 3.369c2.881-.49 5.859-.492 8.734-.006a3.01 3.01 0 0 1 2.525 2.964v9.09a2.99 2.99 0 0 1-2.33 2.926 2.98 2.98 0 0 1-2.41 2.287 26.2 26.2 0 0 1-8.733.006A3.01 3.01 0 0 1 4 17.67V8.58a2.99 2.99 0 0 1 2.328-2.926A2.985 2.985 0 0 1 8.74 3.37m4.385 1.13c-1.38 0-2.77.118-4.133.349A1.496 1.496 0 0 0 7.75 6.329v9.09c0 .737.536 1.361 1.275 1.486 2.71.458 5.518.456 8.232-.005a1.496 1.496 0 0 0 1.242-1.481V6.327c0-.736-.536-1.36-1.275-1.485a24.7 24.7 0 0 0-4.1-.344z" clip-rule="evenodd" />
</svg>
